X:1
T:Title
%%score { ( 1 4 ) | ( 2 3 ) }
L:1/8
M:4/4
K:Ab
V:1 treble nm="Grand Piano"
V:4 treble 
V:2 bass 
V:3 bass 
V:1
 z4 z2[Q:1/4=100] [CE]2 | [CA]2 [CA]>[CA] [CA]2 [Ec]B | [CA]2 [DF]2 [CE]2 [CA]2 | B2 B2 B2 AB | %4
[M:9/8] [Ec]2 [Ec]- [Ec] [EB]2- [EB] [DE]2 |[M:4/4] [CA]2 [CA]>[CA] [CA]2 [Ec]B | %6
 [CA]2 [DF]2 [CE]2 [EA]>[EA] | B2 B2 B2 AB |[M:7/8] c2 B2 [CA]3 |[M:1/4] c2 |[M:4/4] e2 e>d c2 cB | %11
 z2 F2 z4 | z4 B2[K:bass][K:treble] .A2 |[M:9/8] [Ec]2[K:bass][K:treble] [Ec]- [Ec] z z z3 | %14
[M:4/4] e2 e>d c2 cB | A2 F2 E2 A>A | [DGB]2 [DGB]2 [DGB]2 [CA][GB] | %17
[M:7/8] [EAc]2 [DEB]2 [CEA]3 |] %18
V:2
 z4 z2 [A,,A,]2 | [A,,E,]2 [A,,E,]>[A,,E,] [A,,E,]2 A,[E,D] | [A,,E,]2 [A,,A,]2 [A,,A,]2 [A,,A,]2 | %3
 [E,G,E]2 [E,G,E]2 [E,G,E]2 [E,E]-[E,G,E] | %4
[M:9/8] [A,,A,]2 [C,A,]- [C,A,] [E,G,]2- [E,G,] [E,G,]2 |[M:4/4] z4 z2 .A,2 | %6
 [A,,E,]2 [A,,A,]2 [A,,A,]2 [C,A,]>[C,A,] | z4 z2 [E,E]2 |[M:7/8] [E,A,E]2 [E,G,D]2 [A,,A,]3 | %9
[M:1/4][K:treble] [A,E]2 |[M:4/4] [A,CA]2 [A,CA]>[A,EA] [A,EA]2 [EA][DE] | %11
 [A,CE]2 .[A,D]2 [A,C]2 [C,A,]2 | [E,G,E]2 [E,G,E][E,G,E] .[E,G,E]2 [C,A,][B,,G,] | %13
[M:9/8] z2 A,- A, z z z3[K:treble] |[M:4/4] [A,CA]2 [A,CA]>[A,FA] [A,EA]2 [EA][DE] | %15
 [A,CE]2 [A,D]2 [A,C]2 [A,CE]>[A,C] | E,2 E,2 E,2 z D |[M:7/8] E,2 E,2 A,,3 |] %18
V:3
 x8 | z4 z2 A,,2 | x8 | z4 z2 .F,2 |[M:9/8] x9 | %5
[M:4/4] [A,,A,]2 [A,,E,]>[A,,E,] [A,,E,]2 A,,-[A,,E,D] | x8 | [E,G,E]2 [E,G,E]2 [E,G,E]2 F,G, | %8
[M:7/8] x7 |[M:1/4][K:treble] x2 |[M:4/4] z4 z2 A,2 | x8 | x8 | %13
[M:9/8] .[A,,A,]2 C, z [E,G,E]2- [E,G,E][K:treble] [A,E]2 |[M:4/4] z4 z2 A,2 | x8 | z4 z2 E,2 | %17
[M:7/8] x7 |] %18
V:4
 x8 | x8 | x8 | x8 |[M:9/8] x9 |[M:4/4] x8 | x8 | x8 |[M:7/8] x7 |[M:1/4] x2 |[M:4/4] x8 | %11
 A2 z A, E2 [EA]2 | B2 BB z[K:bass] D,[K:treble]E-[EB] | %13
[M:9/8] z[K:bass] .B,,2[K:treble] D, B2- B c2 |[M:4/4] x8 | x8 | x8 |[M:7/8] x7 |] %18

